X: 14378
T: Galtee, The
R: reel
M: 4/4
K: Adorian
|:aged c3A|EA A2 EA A2|aged cAAG|EGGF G2 Be|
aged cAAG|EA A2 a2 ga|bgag eaaf|1 gedB BA A2:|2 gedB BAAB||
|:c2 AB cded|cAAG EAAB|c2 AB cded|cABG EAAB|
cBAB cded|cA A2 a2ga|bgaf gedB|1 cABG EAAB:|2 cABG EAAe||

